!! 00000] TT[00
!! NN
!!!OTL: Da xie di
!!!ARE: Asia, China,ÿJiangxi, Xinfeng
!! Ethnic Group: Han
!! IV, 237
!!!SCT: C0409
!!!YEM: Copyright 1995, estate of Helmut Schaffrath.
**kern
*ICvox
*Ivox
*M2/4
*k[b-e-]
*B-:
{8gg
16gg
16ff
8gg
8bb-
=1
8.gg
16ff
8dd
16cc
16dd
=2
2ff}
=3
{8ccc
16bb-
16ccc
8ddd
8ccc
=4
2bb-}
=5
{8gg
16gg
16ff
8gg
8bb-
=6
8gg
16gg
16ff
16dd
16ff
16cc
16dd
=7
2ff}
=8
{8gg
8ccc
16ccc
16bb-
8g
=9
4ff
8gg
16gg
16dd
=10
2ff}
=11
{8ccc
16bb-
16ccc
8ddd
8ccc
=12
4.bb-
8gg
=13
8ccc
16bb-
16ccc
8ddd
8ccc
=14
4.bb-
8gg}
=15
{8gg
8ff
8gg
8bb-
=16
8gg
8ff
8dd
16cc
16dd
=17
2ff}
=18
{8gg
16ccc
16ddd
16ccc
16bb-
8gg
=19
4ff
8gg
16gg
16dd
=20
2ff}
=21
{8gg
8gg
8ddd
8ddd
=22
8gg
8gg
8ddd
8ddd
=23
8dd
16dd
16ff
8bb-
8gg
=24
2ff}
=25
{8bb-
8bb-
8bb-
8ddd
=26
8.ccc
16ddd
8.ff
16gg
=27
2bb-}
=28
{8.dd
16ff
8bb-
8gg
=29
4ff
8gg
16gg
16dd
=30
2ff}
==
!!!AGN: Xiaodiao, Dieduanqiao, Wuge, dengge. Tuowujiqing
!! beide Namen synonym fuer diese Region. Typisch
!!    Vor-,Zwischen- und Nachspiele weggelassen. Die +3 in den ersten beiden
!!    Takten der Phrase 8 werden hoeher gesungen.
!!!ONB: ESAC (Essen Associative Code) Database: CHINA
!!!AMT: simple duple
!!!AIN: vox
!!!EED: Helmut Schaffrath
!!!EEV: 1.0
*-
